X: 273
T: 3. Le Diable an lair
T: le Diable an l'air
B: Robert Landrin "Potpourri fran\,cois des contre-danse ancienne tel quil se danse chez la Reine ..." 1760 p.27 #3 dance 9 #3
S: http://memory.loc.gov/cgi-bin/query/D?musdibib:2:./temp/~ammem_EbRS:
Z: 2014 John Chambers <jc:trillian.mit.edu>
M: 6/8
L: 1/8
K: G
% - - - - - - - - - - - - - - - - - - - - - - - - -
G2G |\
d2d dcd | !+!BAG g2g | !+!f2g aga | d3 G2G |\
d2d dcd | !+!BAG g2g | f2g aga | d3 :|
|: "4 F"A2B |\
c2B ABG | !+!F2D GFG | AGA BcB | !+!A3 A2B |\
c2B ABG | !+!F2D gfe | dcB AGF | G3 :|
% - - - - - - - - - - - - - - - - - - - - - - - - -

%%sep 1 1 500
%%sep 1 1 500
